X:1
T: Polska fr{\aa}n Medelpad
R: Polska
M: 3/4
L: 1/16
K: Am
"A5"ABA^G A2B2 cBcd|e2eg (3^fgfed f2e2|"A5"ABA^G A2B2 cBcd|d2e2 "Em"BeB=G E4|"A5"ABA^G A2B2 cBcd|e2eg (3^fgfed f2e2|e2ae Acea Acec|1"Em"E=GBG "A5"A8:|2"Em"E=GBG A8|:"F"A2a2 g2a2 f2(3fgf|e2ae Acea Acec|A2Bc d2fd c2BA|A2=G2 G2e2 "Em"E4|"F"A2a2 g2a2 f2(3fgf|e2ae Acea Acec|A2Bc d2Bd cecA|"Em"E=GBG "A5"A8:|